;FLAVOR:Marlin
;TIME:13693
;Filament used: 13.9634m
;Layer height: 0.2
;MINX:22.042
;MINY:21.009
;MINZ:0.2
;MAXX:157.079
;MAXY:115.314
;MAXZ:30
;POSTPROCESSED
;Generated with Cura_SteamEngine 4.13.1
M140 S60
M105
M190 S60
M104 S210
M105
M109 S210
M82 ;absolute extrusion mode
; Ender 3 Custom Start G-code
G92 E0 ; Reset Extruder
G28 ; Home all axes
G1 Z2.0 F3000 ; Move Z Axis up little to prevent scratching of Heat Bed
G1 X0.1 Y20 Z0.3 F5000.0 ; Move to start position
G1 X0.1 Y200.0 Z0.3 F1500.0 E15 ; Draw the first line
G1 X0.4 Y200.0 Z0.3 F5000.0 ; Move to side a little
G1 X0.4 Y20 Z0.3 F1500.0 E30 ; Draw the second line
G92 E0 ; Reset Extruder
G1 Z2.0 F3000 ; Move Z Axis up little to prevent scratching of Heat Bed
G1 X5 Y20 Z0.3 F5000.0 ; Move over to prevent blob squish
G92 E0
G92 E0
G1 F2700 E-5
;LAYER_COUNT:150
;LAYER:0
M107
G0 F6000 X45.364 Y76.309 Z0.2
;TYPE:SKIRT
G1 F2700 E0
G1 F1200 X45.819 Y76.231 E0.02303
G1 X46.171 Y76.111 E0.04158
G1 X46.163 Y76.221 E0.04709
G1 X45.935 Y76.481 E0.06434
G1 X45.714 Y76.831 E0.08499
G1 X45.518 Y76.497 E0.10431
G1 X45.364 Y76.309 E0.11644
G0 F6000 X44.932 Y76.714
G1 F1200 X44.615 Y76.376 E0.13955
G1 X44.431 Y76.228 E0.15134
G1 X44.534 Y75.964 E0.16547
G1 X44.587 Y75.698 E0.17901
G1 X45.015 Y75.733 E0.20043
G1 X45.477 Y75.691 E0.22357
G1 X45.926 Y75.571 E0.24676
G1 X46.347 Y75.375 E0.26993
G1 X46.728 Y75.111 E0.29305
G1 X47.002 Y74.849 E0.31197
G1 X47.667 Y74.117 E0.36131
G1 X47.949 Y73.747 E0.38452
G1 X48.163 Y73.335 E0.40768
G1 X48.287 Y72.944 E0.42814
G1 X48.386 Y72.989 E0.43357
G1 X48.836 Y73.104 E0.45674
G1 X49.299 Y73.141 E0.47991
G1 X49.761 Y73.098 E0.50306
G1 X50.209 Y72.976 E0.52623
G1 X50.63 Y72.779 E0.54942
G1 X50.669 Y72.752 E0.55178
G1 X50.903 Y72.813 E0.56385
G1 X51.214 Y72.84 E0.57942
G1 X51.102 Y73.086 E0.59291
G1 X50.947 Y73.524 E0.61609
G1 X50.902 Y73.794 E0.62974
G1 X49.384 Y73.825 E0.70549
G1 X48.923 Y73.874 E0.72862
G1 X48.476 Y74.002 E0.75182
G1 X48.058 Y74.204 E0.77498
G1 X47.681 Y74.475 E0.79814
G1 X47.356 Y74.807 E0.82132
G1 X47.093 Y75.189 E0.84446
G1 X46.899 Y75.611 E0.86763
G1 X46.78 Y76.06 E0.89081
G1 X46.743 Y76.484 E0.91204
G1 X46.483 Y76.753 E0.93071
G1 X46.223 Y77.138 E0.95388
G1 X46.033 Y77.561 E0.97702
G1 X45.917 Y78.011 E1.0002
G1 X45.881 Y78.474 E1.02337
G1 X45.922 Y78.907 E1.04507
G1 X45.679 Y79.155 E1.06239
G1 X45.483 Y79.44 E1.07965
G1 X45.309 Y79.403 E1.08852
G1 X45.334 Y79.351 E1.0914
G1 X45.462 Y78.905 E1.11455
G1 X45.511 Y78.443 E1.13773
G1 X45.481 Y77.98 E1.16088
G1 X45.372 Y77.528 E1.18408
G1 X45.187 Y77.102 E1.20725
G1 X44.932 Y76.714 E1.23041
G0 F6000 X43.92 Y77.375
G1 F1200 X43.691 Y77.17 E1.24574
G1 X43.442 Y76.99 E1.26107
G1 X43.14 Y76.821 E1.27834
G1 X42.861 Y76.741 E1.29282
G1 X43.289 Y75.868 E1.34133
G1 X43.404 Y75.542 E1.35857
G1 X43.442 Y75.198 E1.37584
G1 X43.4 Y74.855 E1.39308
G1 X43.28 Y74.531 E1.41032
G1 X43.102 Y74.26 E1.42649
G1 X43.724 Y73.925 E1.46174
G1 X44.055 Y74.195 E1.48305
G1 X44.347 Y74.381 E1.50032
G1 X44.673 Y74.496 E1.51757
G1 X45.017 Y74.533 E1.53483
G1 X45.36 Y74.49 E1.55208
G1 X45.684 Y74.37 E1.56931
G1 X45.972 Y74.179 E1.58655
G1 X46.114 Y74.042 E1.5964
G1 X46.779 Y73.31 E1.64574
G1 X46.981 Y73.029 E1.663
G1 X47.113 Y72.709 E1.68027
G1 X47.168 Y72.367 E1.69755
G1 X47.143 Y72.022 E1.71481
G1 X47.102 Y71.863 E1.723
G1 X47.308 Y71.809 E1.73363
G1 X48.208 Y71.503 E1.78105
G1 X48.335 Y71.606 E1.78921
G1 X48.627 Y71.791 E1.80646
G1 X48.953 Y71.905 E1.82369
G1 X49.297 Y71.941 E1.84094
G1 X49.64 Y71.897 E1.8582
G1 X49.964 Y71.776 E1.87545
G1 X50.252 Y71.584 E1.89272
G1 X50.425 Y71.41 E1.90496
G1 X50.858 Y71.565 E1.92791
G1 X51.195 Y71.643 E1.94516
G1 X51.541 Y71.643 E1.96242
G1 X51.877 Y71.562 E1.97967
G1 X52.186 Y71.407 E1.99692
G1 X52.452 Y71.186 E2.01417
G1 X52.659 Y70.909 E2.03142
G1 X52.66 Y70.976 E2.03476
G1 X52.679 Y71.321 E2.052
G1 X52.745 Y71.57 E2.06485
G1 X52.905 Y72.015 E2.08845
G1 X52.195 Y73.581 E2.17423
G1 X52.089 Y73.91 E2.19147
G1 X52.062 Y74.255 E2.20874
G1 X52.114 Y74.597 E2.226
G1 X52.244 Y74.918 E2.24328
G1 X52.249 Y74.925 E2.2437
G1 X51.191 Y74.987 E2.29658
G1 X49.409 Y75.024 E2.3855
G1 X49.066 Y75.071 E2.40277
G1 X48.744 Y75.195 E2.41999
G1 X48.458 Y75.39 E2.43726
G1 X48.224 Y75.645 E2.45453
G1 X48.055 Y75.947 E2.47179
G1 X47.96 Y76.28 E2.48907
G1 X47.943 Y76.625 E2.5063
G1 X48.006 Y76.965 E2.52355
G1 X48.028 Y77.059 E2.52837
G1 X47.723 Y77.222 E2.54562
G1 X47.464 Y77.452 E2.5629
G1 X47.265 Y77.734 E2.58012
G1 X47.135 Y78.055 E2.5974
G1 X47.082 Y78.396 E2.61462
G1 X47.109 Y78.741 E2.63188
G1 X47.214 Y79.071 E2.64916
G1 X47.392 Y79.367 E2.66639
G1 X47.442 Y79.416 E2.66988
G1 X47.221 Y79.474 E2.68128
G1 X46.915 Y79.635 E2.69853
G1 X46.654 Y79.862 E2.71579
G1 X46.452 Y80.143 E2.73306
G1 X46.319 Y80.462 E2.7503
G1 X46.268 Y80.917 E2.77314
G1 X45.364 Y80.638 E2.82034
G1 X45.024 Y80.575 E2.83759
G1 X44.651 Y80.596 E2.85623
G1 X42.944 Y80.91 E2.94282
G1 X42.976 Y80.784 E2.94931
G1 X43.023 Y80.441 E2.96658
G1 X42.99 Y80.097 E2.98382
G1 X42.914 Y79.874 E2.99557
G1 X43.156 Y79.846 E3.00773
G1 X43.481 Y79.729 E3.02496
G1 X43.771 Y79.54 E3.04223
G1 X44.009 Y79.29 E3.05945
G1 X44.184 Y78.991 E3.07674
G1 X44.287 Y78.661 E3.09398
G1 X44.31 Y78.316 E3.11123
G1 X44.255 Y77.975 E3.12847
G1 X44.122 Y77.655 E3.14576
G1 X43.92 Y77.375 E3.16298
G0 F6000 X45.206 Y75.123
G1 F1200 X45.608 Y75.044 E3.18342
G1 X45.986 Y74.889 E3.2038
G1 X46.328 Y74.663 E3.22425
G1 X46.558 Y74.445 E3.24006
G1 X47.223 Y73.713 E3.2894
G1 X47.468 Y73.385 E3.30983
G1 X47.644 Y73.015 E3.33027
G1 X47.745 Y72.618 E3.35071
G1 X47.763 Y72.288 E3.3672
G1 X48.108 Y72.171 E3.38537
G1 X48.298 Y72.297 E3.39674
G1 X48.677 Y72.453 E3.41719
G1 X49.079 Y72.531 E3.43762
G1 X49.488 Y72.531 E3.45803
G1 X49.889 Y72.451 E3.47843
G1 X50.268 Y72.294 E3.49889
G1 X50.564 Y72.097 E3.51663
G1 X50.656 Y72.13 E3.52151
G1 X51.053 Y72.23 E3.54193
G1 X51.462 Y72.251 E3.56237
G1 X51.867 Y72.192 E3.58278
G1 X52.222 Y72.067 E3.60156
G1 X51.648 Y73.333 E3.67091
G1 X51.516 Y73.721 E3.69136
G1 X51.462 Y74.127 E3.71179
G1 X51.477 Y74.369 E3.72389
G1 X51.17 Y74.387 E3.73923
G1 X49.397 Y74.424 E3.82771
G1 X48.99 Y74.473 E3.84816
G1 X48.601 Y74.599 E3.86856
G1 X48.243 Y74.798 E3.88899
G1 X47.931 Y75.063 E3.90942
G1 X47.676 Y75.384 E3.92987
G1 X47.489 Y75.748 E3.95028
G1 X47.375 Y76.141 E3.9707
G1 X47.34 Y76.549 E3.99113
G1 X47.362 Y76.751 E4.00127
G1 X47.292 Y76.795 E4.00539
G1 X46.995 Y77.077 E4.02582
G1 X46.758 Y77.41 E4.04622
G1 X46.59 Y77.784 E4.06667
G1 X46.498 Y78.183 E4.0871
G1 X46.486 Y78.592 E4.10751
G1 X46.552 Y78.996 E4.12794
G1 X46.603 Y79.132 E4.13518
G1 X46.487 Y79.204 E4.14199
G1 X46.188 Y79.483 E4.1624
G1 X45.948 Y79.815 E4.18283
G1 X45.797 Y80.143 E4.20085
G1 X45.541 Y80.064 E4.21422
G1 X45.14 Y79.982 E4.23464
G1 X44.543 Y80.006 E4.26444
G1 X44.013 Y80.103 E4.29133
G1 X44.29 Y79.877 E4.30916
G1 X44.552 Y79.562 E4.3296
G1 X44.747 Y79.202 E4.35003
G1 X44.868 Y78.811 E4.37045
G1 X44.912 Y78.404 E4.39087
G1 X44.876 Y77.997 E4.41126
G1 X44.761 Y77.604 E4.43168
G1 X44.572 Y77.24 E4.45215
G1 X44.316 Y76.921 E4.47255
G1 X44.042 Y76.684 E4.49063
G1 X43.793 Y76.504 E4.50596
G1 X43.678 Y76.437 E4.5126
G1 X43.828 Y76.132 E4.52955
G1 X43.971 Y75.749 E4.54995
G1 X44.038 Y75.345 E4.57038
G1 X44.024 Y74.936 E4.5908
G1 X44.017 Y74.886 E4.59332
G1 X44.395 Y75.043 E4.61374
G1 X44.796 Y75.123 E4.63414
G1 X45.206 Y75.123 E4.65459
G0 F6000 X45.192 Y73.913
G1 F1200 X45.443 Y73.819 E4.66796
G1 X45.67 Y73.638 E4.68245
G1 X46.335 Y72.906 E4.73179
G1 X46.484 Y72.684 E4.74513
G1 X46.56 Y72.427 E4.7585
G1 X46.558 Y72.16 E4.77182
G1 X46.477 Y71.905 E4.78517
G1 X46.312 Y71.672 E4.79941
G1 X45.743 Y71.091 E4.83998
G1 X45.788 Y71.03 E4.84376
G1 X46.579 Y71.255 E4.88479
G1 X46.845 Y71.289 E4.89817
G1 X47.115 Y71.241 E4.91185
G1 X48.329 Y70.828 E4.97583
G1 X48.713 Y71.14 E5.00051
G1 X48.943 Y71.276 E5.01384
G1 X49.204 Y71.338 E5.02723
G1 X49.471 Y71.321 E5.04058
G1 X49.721 Y71.226 E5.05392
G1 X49.966 Y71.024 E5.06976
G1 X50.237 Y70.705 E5.09064
G1 X51.061 Y71 E5.13431
G1 X51.323 Y71.052 E5.14763
G1 X51.589 Y71.024 E5.16098
G1 X51.835 Y70.92 E5.1743
G1 X52.04 Y70.747 E5.18768
G1 X52.185 Y70.522 E5.20104
G1 X52.264 Y70.153 E5.21987
G1 X52.264 Y69.283 E5.26327
G1 X52.377 Y69.158 E5.27168
G1 X52.49 Y68.915 E5.28505
G1 X52.527 Y68.65 E5.2984
G1 X52.484 Y68.386 E5.31174
G1 X52.365 Y68.146 E5.32511
G1 X52.181 Y67.952 E5.33845
G1 X51.948 Y67.82 E5.35181
G1 X51.687 Y67.763 E5.36513
G1 X51.51 Y67.769 E5.37397
G1 X50.03 Y67.964 E5.44844
G1 X49.776 Y67.879 E5.46181
G1 X49.513 Y67.833 E5.47513
G1 X49.247 Y67.867 E5.48851
G1 X49.003 Y67.977 E5.50186
G1 X48.789 Y68.17 E5.51624
G1 X48.478 Y68.558 E5.54105
G1 X48.275 Y68.492 E5.55169
G1 X47.903 Y67.462 E5.60633
G1 X47.775 Y67.227 E5.61968
G1 X47.584 Y67.039 E5.63305
G1 X47.347 Y66.916 E5.64637
G1 X47.084 Y66.868 E5.65971
G1 X46.818 Y66.9 E5.67308
G1 X46.573 Y67.008 E5.68644
G1 X46.371 Y67.184 E5.6998
G1 X46.23 Y67.411 E5.71313
G1 X46.161 Y67.67 E5.72651
G1 X46.157 Y67.808 E5.73339
G1 X46.205 Y68.878 E5.78683
G1 X46.058 Y68.926 E5.79455
G1 X44.924 Y68.164 E5.86271
G1 X44.682 Y68.049 E5.87607
G1 X44.417 Y68.011 E5.88943
G1 X44.153 Y68.052 E5.90276
G1 X43.912 Y68.169 E5.91612
G1 X43.717 Y68.352 E5.92947
G1 X43.583 Y68.584 E5.94283
G1 X43.524 Y68.845 E5.95618
G1 X43.53 Y69.03 E5.96542
G1 X43.806 Y71.107 E6.06995
G1 X43.855 Y71.278 E6.07882
G1 X43.683 Y71.565 E6.09552
G1 X43.614 Y71.535 E6.09927
G1 X43.317 Y71.507 E6.11415
G1 X42.531 Y71.564 E6.15347
G1 X42.459 Y71.465 E6.15958
G1 X42.766 Y71.043 E6.18561
G1 X43.067 Y70.783 E6.20546
G1 X43.242 Y70.58 E6.21883
G1 X43.348 Y70.335 E6.23215
G1 X43.378 Y70.069 E6.2455
G1 X43.329 Y69.806 E6.25885
G1 X43.204 Y69.569 E6.27222
G1 X43.015 Y69.379 E6.28559
G1 X42.779 Y69.254 E6.29891
G1 X42.612 Y69.212 E6.3075
G1 X41.215 Y69.003 E6.37797
G1 X40.948 Y69.003 E6.39129
G1 X40.692 Y69.082 E6.40466
G1 X40.471 Y69.232 E6.41799
G1 X40.303 Y69.441 E6.43136
G1 X40.205 Y69.69 E6.44471
G1 X40.182 Y69.893 E6.45491
G1 X40.182 Y70.778 E6.49906
G1 X39.842 Y71.097 E6.52232
G1 X39.677 Y71.307 E6.53564
G1 X39.58 Y71.557 E6.54902
G1 X39.561 Y71.824 E6.56238
G1 X39.621 Y72.085 E6.57574
G1 X39.755 Y72.316 E6.58906
G1 X40.041 Y72.551 E6.60753
G1 X40.313 Y72.693 E6.62284
G1 X40.313 Y73.092 E6.64274
G1 X40.001 Y73.457 E6.6667
G1 X39.859 Y73.684 E6.68006
G1 X39.791 Y73.942 E6.69337
G1 X39.801 Y74.21 E6.70675
G1 X39.889 Y74.462 E6.72007
G1 X40.048 Y74.678 E6.73345
G1 X40.263 Y74.837 E6.74679
G1 X40.562 Y74.943 E6.76261
G1 X40.534 Y75.109 E6.77101
G1 X39.697 Y75.522 E6.81758
G1 X39.477 Y75.675 E6.83095
G1 X39.312 Y75.885 E6.84427
G1 X39.216 Y76.135 E6.85763
G1 X39.198 Y76.402 E6.87098
G1 X39.259 Y76.663 E6.88435
G1 X39.367 Y76.859 E6.89552
G1 X39.919 Y77.617 E6.9423
G1 X39.846 Y78.396 E6.98134
G1 X39.861 Y78.663 E6.99468
G1 X39.954 Y78.914 E7.00803
G1 X40.116 Y79.127 E7.02138
G1 X40.334 Y79.282 E7.03473
G1 X40.588 Y79.367 E7.04809
G1 X40.884 Y79.369 E7.06286
G1 X41.724 Y79.235 E7.1053
G1 X41.902 Y79.179 E7.11461
G1 X41.944 Y79.206 E7.1171
G1 X42.315 Y79.286 E7.13603
G1 X42.812 Y79.286 E7.16083
G1 X43.077 Y79.246 E7.1742
G1 X43.318 Y79.13 E7.18754
G1 X43.514 Y78.949 E7.20085
G1 X43.649 Y78.717 E7.21424
G1 X43.709 Y78.457 E7.22756
G1 X43.69 Y78.19 E7.24091
G1 X43.594 Y77.94 E7.25427
G1 X43.339 Y77.657 E7.27328
G1 X43.09 Y77.477 E7.2886
G1 X42.853 Y77.354 E7.30193
G1 X42.589 Y77.306 E7.31531
G1 X42.324 Y77.338 E7.32863
G1 X42.063 Y77.464 E7.34309
G1 X41.931 Y77.275 E7.35459
G1 X42.75 Y75.604 E7.44743
G1 X42.831 Y75.349 E7.46078
G1 X42.833 Y75.081 E7.47415
G1 X42.756 Y74.825 E7.48749
G1 X42.608 Y74.603 E7.5008
G1 X42.47 Y74.479 E7.51006
G1 X42.247 Y74.317 E7.52381
G1 X42.58 Y73.858 E7.5521
G1 X43.793 Y73.206 E7.6208
G1 X44.435 Y73.73 E7.66215
G1 X44.665 Y73.867 E7.6755
G1 X44.925 Y73.93 E7.68885
G1 X45.192 Y73.913 E7.7022
G0 F6000 X48.542 Y76.472
G1 F1200 X48.566 Y76.738 E7.71552
G1 X48.668 Y76.986 E7.7289
G1 X48.837 Y77.193 E7.74223
G1 X49.099 Y77.357 E7.75765
G1 X50.184 Y77.801 E7.81614
G1 X50.444 Y77.864 E7.82949
G1 X50.775 Y77.833 E7.84607
G1 X51.345 Y77.668 E7.87568
G1 X52.313 Y78.751 E7.94815
G1 X52.519 Y78.922 E7.9615
G1 X52.766 Y79.024 E7.97484
G1 X53.033 Y79.05 E7.98822
G1 X53.295 Y78.996 E8.00157
G1 X53.529 Y78.867 E8.0149
G1 X53.716 Y78.675 E8.02827
G1 X53.837 Y78.437 E8.04159
G1 X53.884 Y78.151 E8.05605
G1 X53.884 Y77.569 E8.08508
G1 X54.184 Y77.49 E8.10056
G1 X54.154 Y77.745 E8.11337
G1 X54.229 Y79.876 E8.21975
G1 X54.278 Y80.139 E8.2331
G1 X54.488 Y80.476 E8.25291
G1 X54.8 Y80.792 E8.27507
G1 X55.014 Y80.953 E8.28843
G1 X55.266 Y81.043 E8.30178
G1 X55.533 Y81.055 E8.31511
G1 X55.792 Y80.988 E8.32846
G1 X56.02 Y80.848 E8.34181
G1 X56.197 Y80.647 E8.35517
G1 X56.307 Y80.403 E8.36852
G1 X56.339 Y80.122 E8.38263
G1 X56.258 Y78.204 E8.4784
G1 X56.207 Y77.941 E8.49177
G1 X56.138 Y77.791 E8.50001
G1 X55.832 Y77.262 E8.5305
G1 X55.685 Y77.078 E8.54225
G1 X55.704 Y77.038 E8.54446
G1 X55.74 Y76.739 E8.55948
G1 X55.63 Y74.531 E8.66977
G1 X55.705 Y74.08 E8.69258
G1 X55.968 Y73.831 E8.71065
G1 X56.133 Y73.621 E8.72398
G1 X56.229 Y73.371 E8.73734
G1 X56.247 Y73.104 E8.75069
G1 X56.186 Y72.844 E8.76401
G1 X56.078 Y72.647 E8.77522
G1 X55.495 Y71.846 E8.82465
G1 X55.472 Y69.66 E8.93371
G1 X55.429 Y69.395 E8.94711
G1 X55.311 Y69.155 E8.96045
G1 X55.127 Y68.961 E8.97379
G1 X54.895 Y68.829 E8.98711
G1 X54.633 Y68.771 E9.00049
G1 X54.367 Y68.793 E9.01381
G1 X54.118 Y68.892 E9.02718
G1 X53.91 Y69.06 E9.04052
G1 X53.76 Y69.281 E9.05384
G1 X53.709 Y69.412 E9.06086
G1 X53.294 Y70.806 E9.13342
G1 X53.257 Y71.071 E9.14677
G1 X53.31 Y71.367 E9.16177
G1 X53.552 Y72.04 E9.19745
G1 X52.741 Y73.829 E9.29545
G1 X52.668 Y74.086 E9.30878
G1 X52.674 Y74.354 E9.32215
G1 X52.759 Y74.607 E9.33547
G1 X52.848 Y74.75 E9.34387
G1 X53.293 Y75.327 E9.38022
G1 X53.188 Y75.471 E9.38911
G1 X51.212 Y75.587 E9.48787
G1 X49.421 Y75.624 E9.57724
G1 X49.158 Y75.669 E9.59055
G1 X48.919 Y75.79 E9.60392
G1 X48.726 Y75.976 E9.61729
G1 X48.597 Y76.21 E9.63062
G1 X48.542 Y76.472 E9.64398
G0 F6000 X47.275 Y80.116
G1 F1200 X47.074 Y80.292 E9.6573
G1 X46.934 Y80.52 E9.67065
G1 X46.867 Y80.779 E9.684
G1 X46.863 Y80.919 E9.69099
G1 X46.896 Y81.555 E9.72276
G1 X46.606 Y81.649 E9.73797
G1 X45.187 Y81.211 E9.81206
G1 X44.923 Y81.171 E9.82538
G1 X44.759 Y81.186 E9.8336
G1 X42.563 Y81.589 E9.94499
G1 X42.246 Y81.218 E9.96933
G1 X42.395 Y80.635 E9.99935
G1 X42.422 Y80.369 E10.01269
G1 X42.37 Y80.106 E10.02607
G1 X42.242 Y79.871 E10.03942
G1 X42.051 Y79.683 E10.05279
G1 X41.814 Y79.56 E10.06611
G1 X41.551 Y79.512 E10.07945
G1 X41.351 Y79.529 E10.08946
G1 X40.662 Y79.663 E10.12448
G1 X40.41 Y79.752 E10.13781
G1 X40.195 Y79.912 E10.15118
G1 X40.037 Y80.128 E10.16453
G1 X39.94 Y80.439 E10.18079
G1 X39.833 Y81.332 E10.22566
G1 X39.247 Y81.448 E10.25546
G1 X39.079 Y81.217 E10.26971
G1 X39.249 Y80.527 E10.30517
G1 X39.274 Y80.261 E10.31849
G1 X39.219 Y79.999 E10.33185
G1 X39.103 Y79.782 E10.34413
G1 X38.623 Y79.123 E10.3848
G1 X38.944 Y78.16 E10.43544
G1 X38.99 Y77.897 E10.44876
G1 X38.956 Y77.631 E10.46214
G1 X38.859 Y77.408 E10.47428
G1 X38.286 Y76.466 E10.52928
G1 X38.479 Y75.446 E10.58107
G1 X38.896 Y75.247 E10.60413
G1 X39.118 Y75.098 E10.61747
G1 X39.286 Y74.889 E10.63084
G1 X39.385 Y74.641 E10.64417
G1 X39.407 Y74.374 E10.65753
G1 X39.353 Y74.123 E10.67034
G1 X38.934 Y72.99 E10.73061
G1 X38.818 Y72.772 E10.74293
G1 X38.284 Y72.038 E10.78821
G1 X38.51 Y70.577 E10.86197
G1 X38.52 Y70.393 E10.87116
G1 X38.48 Y69.619 E10.90983
G1 X38.932 Y69.472 E10.93354
G1 X39.558 Y69.43 E10.96484
G1 X39.819 Y69.372 E10.97818
G1 X40.052 Y69.24 E10.99154
G1 X40.236 Y69.046 E11.00488
G1 X40.354 Y68.806 E11.01823
G1 X40.397 Y68.542 E11.03157
G1 X40.36 Y68.277 E11.04492
G1 X40.247 Y68.034 E11.05829
G1 X40.067 Y67.836 E11.07164
G1 X39.841 Y67.7 E11.0848
G1 X38.483 Y67.139 E11.1581
G1 X38.463 Y66.632 E11.18342
G1 X38.869 Y66.327 E11.20875
G1 X39.057 Y66.136 E11.22212
G1 X39.18 Y65.899 E11.23544
G1 X39.229 Y65.635 E11.24884
G1 X39.197 Y65.37 E11.26216
G1 X39.092 Y65.13 E11.27523
G1 X38.521 Y64.216 E11.32899
G1 X38.867 Y62.796 E11.40191
G1 X38.891 Y62.53 E11.41523
G1 X38.836 Y62.268 E11.42859
