;FLAVOR:Marlin
;TIME:13693
;Filament used: 13.9634m
;Layer height: 0.2
;MINX:22.042
;MINY:21.009
;MINZ:0.2
;MAXX:157.079
;MAXY:115.314
;MAXZ:30
;POSTPROCESSED
;Generated with Cura_SteamEngine 4.13.1
M140 S60
M105
M190 S60
M104 S210
M105
M109 S210
M82 ;absolute extrusion mode
; Ender 3 Custom Start G-code
G92 E0 ; Reset Extruder
G28 ; Home all axes
G1 Z7.4 F3000 ; Move Z Axis up little to prevent scratching of Heat Bed
G92 E0
G92 E0
G1 F2700 E-5
;LAYER_COUNT:150
M106 S100


;LAYER:37
;TYPE:WALL-INNER
;MESH:Base.STL
G1 F2700 E3260.38423
G1 F1800 X78.925 Y109.9 E3260.48401
G1 X78.925 Y109 E3260.52891
G1 X78.116 Y109 E3260.56927
G1 X78.25 Y108.865 E3260.57876
G1 X78.54 Y108.452 E3260.59268
G1 X78.753 Y107.993 E3260.61792
G1 X78.885 Y107.504 E3260.64319
G1 X78.925 Y107.039 E3260.66648
G1 X78.925 Y104.9 E3260.77319
G1 X79.025 Y104.9 E3260.77818
G1 X79.025 Y107.039 E3260.796
G1 X79.025 Y107.993 E3260.82616
G1 X79.025 Y109 E3260.8628
G1 X79.025 Y109.9 E3260.8703
G1 X81.925 Y109.9 E3261.01498
G1 X81.925 Y104.9 E3261.26443
G1 X82.125 Y104.9 E3261.27441
G1 X82.125 Y109.9 E3261.3577
G1 X82.125 Y111.957 E3261.46032
G1 X82.055 Y112.375 E3261.48146
G1 X81.867 Y112.702 E3261.50028
G1 X81.571 Y112.951 E3261.51958
G1 X81.216 Y113.079 E3261.53841
G1 X80.977 Y113.1 E3261.55038
G1 X73.925 Y113.1 E3261.9022
G1 X73.925 Y111.9 E3261.96207
G1 X78.925 Y111.9 E3262.21152
G0 F9000 X78.325 Y111.3
;TYPE:WALL-OUTER
G1 F1800 X78.325 Y109.6 E3262.29634
G1 X73.325 Y109.6 E3262.54579
G1 X73.325 Y109.3 E3262.56075
G1 X76.038 Y109.3 E3262.69611
G1 X76.424 Y109.266 E3262.71544
G1 X76.812 Y109.162 E3262.73548
G1 X77.175 Y108.993 E3262.75546
G1 X77.505 Y108.763 E3262.77552
G1 X77.788 Y108.478 E3262.79556
G1 X78.018 Y108.151 E3262.81551
G1 X78.187 Y107.787 E3262.83553
G1 X78.292 Y107.399 E3262.85558
G1 X78.325 Y107.013 E3262.87491
G1 X78.325 Y104.3 E3263.01026
G1 X79.625 Y104.3 E3263.07512
G1 X79.625 Y109.3 E3263.32457
G1 X81.325 Y109.3 E3263.40938
G1 X81.325 Y104.3 E3263.65883
G1 X82.725 Y104.3 E3263.72868
G1 X82.725 Y111.986 E3264.11214
G1 X82.698 Y112.294 E3264.12756
G1 X82.621 Y112.581 E3264.14239
G1 X82.496 Y112.849 E3264.15714
G1 X82.327 Y113.09 E3264.17183
G1 X82.115 Y113.302 E3264.18678
G1 X81.875 Y113.471 E3264.20143
G1 X81.605 Y113.596 E3264.21627
G1 X81.321 Y113.672 E3264.23094
G1 X81.009 Y113.7 E3264.24657
G1 X73.325 Y113.7 E3264.62992
G1 X73.325 Y111.3 E3264.74966
G1 X78.325 Y111.3 E3264.99911
G0 F9000 X79.045 Y111.635
;TYPE:FILL
G1 F3600 X80.388 Y112.978 E3265.09387
G0 F9000 X81.385 Y113.241
G0 X81.407 Y113.329
;TYPE:SKIN
G1 F1800 X81.511 Y113.225 E3265.09754
G0 F9000 X81.503 Y113.204
G0 X79.285 Y112.482
G1 F1800 X78.923 Y112.844 E3265.11031
G0 F9000 X78.843 Y112.499
G1 F1800 X78.419 Y112.499 E3265.13602
G1 X74.601 Y112.499 E3265.36759
G1 X74.35 Y112.325 E3265.38612
G0 F9000 X74.179 Y112.496
G0 X78.653 Y111.628
G0 X78.653 Y109.272
G0 X77.383 Y109.275
G0 X77.567 Y109.108
G1 F1800 X77.841 Y109.258 E3265.40874
G0 F9000 X78.3 Y109.24
G1 F2700 E3260.40874
G0 F9000 X78.3 Y109.2
G0 X77.245 Y109.296
G0 X76.485 Y108.252
G0 X53.187 Y104.389
G0 X54.612 Y105.587
G0 X53.777 Y105.915
;TYPE:WALL-INNER
G1 F2700 E3265.40874
G1 F1800 X54.107 Y105.682 E3265.4289
G1 X54.389 Y105.399 E3265.44883
G1 X54.619 Y105.073 E3265.46873
G1 X54.79 Y104.707 E3265.48889
G1 X54.894 Y104.319 E3265.50893
G1 X54.928 Y103.92 E3265.52891
G1 X54.894 Y103.52 E3265.54893
G1 X54.79 Y103.13 E3265.56907
G1 X54.619 Y102.767 E3265.58909
G1 X54.389 Y102.44 E3265.60904
G1 X54.107 Y102.157 E3265.62897
G1 X53.777 Y101.924 E3265.64912
G1 X53.413 Y101.755 E3265.66914
G1 X53.024 Y101.651 E3265.68923
G1 X52.625 Y101.617 E3265.70921
G1 X52.226 Y101.651 E3265.72919
G1 X51.837 Y101.755 E3265.74928
G1 X51.473 Y101.924 E3265.7693
G1 X51.143 Y102.157 E3265.78945
G1 X50.861 Y102.44 E3265.80939
G1 X50.631 Y102.767 E3265.82933
G1 X50.46 Y103.13 E3265.84935
G1 X50.356 Y103.52 E3265.86949
G1 X50.322 Y103.92 E3265.88952
G1 X50.356 Y104.319 E3265.90949
G1 X50.46 Y104.707 E3265.92953
G1 X50.631 Y105.073 E3265.94969
G1 X50.861 Y105.399 E3265.96959
G1 X51.143 Y105.682 E3265.98953
G1 X51.473 Y105.915 E3266.00968
G1 X51.838 Y106.084 E3266.02975
G1 X52.224 Y106.187 E3266.04968
G1 X52.625 Y106.223 E3266.06976
G1 X53.026 Y106.187 E3266.08985
G1 X53.412 Y106.084 E3266.10978
G1 X53.777 Y105.915 E3266.12985
G0 F9000 X53.476 Y105.393
;TYPE:WALL-OUTER
G1 F1800 X53.719 Y105.222 E3266.14467
G1 X53.928 Y105.012 E3266.15946
G1 X54.098 Y104.771 E3266.17417
G1 X54.224 Y104.501 E3266.18903
G1 X54.301 Y104.215 E3266.20381
G1 X54.326 Y103.92 E3266.21858
G1 X54.301 Y103.624 E3266.2334
G1 X54.224 Y103.337 E3266.24823
G1 X54.098 Y103.069 E3266.263
G1 X53.928 Y102.827 E3266.27776
G1 X53.719 Y102.617 E3266.29254
G1 X53.476 Y102.446 E3266.30736
G1 X53.207 Y102.321 E3266.32216
G1 X52.92 Y102.244 E3266.33698
G1 X52.625 Y102.219 E3266.35175
G1 X52.33 Y102.244 E3266.36653
G1 X52.043 Y102.321 E3266.38135
G1 X51.774 Y102.446 E3266.39615
G1 X51.531 Y102.617 E3266.41097
G1 X51.322 Y102.827 E3266.42575
G1 X51.152 Y103.069 E3266.44051
G1 X51.026 Y103.337 E3266.45528
G1 X50.949 Y103.624 E3266.47011
G1 X50.924 Y103.92 E3266.48493
G1 X50.949 Y104.215 E3266.4997
G1 X51.026 Y104.501 E3266.51448
G1 X51.152 Y104.771 E3266.52934
G1 X51.322 Y105.012 E3266.54405
G1 X51.531 Y105.222 E3266.55884
G1 X51.774 Y105.393 E3266.57366
G1 X52.043 Y105.518 E3266.58846
G1 X52.329 Y105.594 E3266.60322
G1 X52.625 Y105.621 E3266.61805
G1 X52.921 Y105.594 E3266.63288
G1 X53.207 Y105.518 E3266.64764
G1 X53.476 Y105.393 E3266.66244
G0 F9000 X53.806 Y105.964
G1 F2700 E3261.66244
G0 F9000 X54.445 Y105.782
G0 X54.445 Y106.71
G0 X55.668 Y106.998
;TYPE:WALL-INNER
G1 F2700 E3266.66244
G1 F1800 X55.584 Y107.02 E3266.66677
G1 X49.692 Y107.02 E3266.96073
G1 X49.547 Y106.964 E3266.96848
G1 X49.525 Y106.876 E3266.97301
G1 X49.525 Y100.986 E3267.26686
G1 X49.579 Y100.842 E3267.27453
G1 X49.67 Y100.82 E3267.2792
G1 X55.561 Y100.82 E3267.57311
G1 X55.705 Y100.879 E3267.58087
G1 X55.725 Y100.958 E3267.58494
G1 X55.725 Y106.858 E3267.87929
G1 X55.668 Y106.998 E3267.88683
G0 F9000 X55.973 Y107.526
;TYPE:WALL-OUTER
G1 F1800 X55.746 Y107.607 E3267.89886
G1 X55.609 Y107.62 E3267.90572
G1 X49.641 Y107.62 E3268.20347
G1 X49.383 Y107.575 E3268.21653
G1 X49.175 Y107.454 E3268.22854
G1 X49.02 Y107.27 E3268.24054
G1 X48.937 Y107.041 E3268.25269
G1 X48.925 Y106.906 E3268.25945
G1 X48.925 Y100.934 E3268.5574
G1 X48.968 Y100.679 E3268.5703
G1 X49.091 Y100.468 E3268.58248
G1 X49.277 Y100.313 E3268.59456
G1 X49.504 Y100.232 E3268.60659
G1 X49.639 Y100.22 E3268.61335
G1 X55.611 Y100.22 E3268.91129
G1 X55.867 Y100.264 E3268.92425
G1 X56.075 Y100.385 E3268.93626
G1 X56.232 Y100.573 E3268.94848
G1 X56.313 Y100.797 E3268.96036
G1 X56.325 Y100.934 E3268.96722
G1 X56.325 Y106.906 E3269.26517
G1 X56.282 Y107.158 E3269.27792
G1 X56.16 Y107.369 E3269.29008
G1 X55.973 Y107.526 E3269.30226
G0 F9000 X55.645 Y106.954
G0 X55.135 Y106.43
;TYPE:SKIN
G1 F1800 X54.07 Y106.43 E3269.3554
G1 X54.489 Y106.134 E3269.38099
G1 X54.842 Y105.78 E3269.40593
G1 X55.135 Y105.364 E3269.43132
G1 X55.135 Y106.43 E3269.4845
G0 F9000 X55.515 Y106.43
G0 X55.515 Y102.479
G0 X55.135 Y102.479
G1 F1800 X55.131 Y102.47 E3269.48499
G1 X54.843 Y102.059 E3269.51003
G1 X54.489 Y101.705 E3269.53501
G1 X54.072 Y101.41 E3269.56049
G1 X55.135 Y101.41 E3269.61352
G1 X55.135 Y102.479 E3269.66686
G0 F9000 X55.515 Y102.479
G0 X55.443 Y101.102
G0 X49.807 Y101.102
G0 X49.735 Y102.479
G0 X50.115 Y102.479
G1 F1800 X50.115 Y101.41 E3269.72019
G1 X51.178 Y101.41 E3269.77322
G1 X50.761 Y101.705 E3269.79871
G1 X50.407 Y102.059 E3269.82368
G1 X50.119 Y102.47 E3269.84872
G1 X50.115 Y102.479 E3269.84921
G0 F9000 X49.735 Y102.479
G0 X49.807 Y106.738
G0 X51.18 Y106.81
G0 X51.18 Y106.43
G1 F1800 X50.115 Y106.43 E3269.90234
G1 X50.115 Y105.364 E3269.95553
G1 X50.408 Y105.78 E3269.98091
G1 X50.761 Y106.134 E3270.00585
G1 X51.18 Y106.43 E3270.03145
G0 F9000 X51.472 Y106.353
;TYPE:SKIN
G1 F1800 X51.592 Y106.233 E3270.03568
G0 F9000 X51.902 Y106.348
G1 F1800 X51.471 Y106.778 E3270.05087
G0 F9000 X51.895 Y106.778
G1 F1800 X52.247 Y106.427 E3270.06327
G0 F9000 X52.32 Y106.778
G1 F1800 X52.637 Y106.461 E3270.07445
G0 F9000 X52.744 Y106.778
G1 F1800 X53.113 Y106.409 E3270.08747
G0 F9000 X53.168 Y106.778
G1 F1800 X53.762 Y106.185 E3270.10841
G0 F9000 X53.835 Y106.536
G1 F1800 X53.593 Y106.778 E3270.11694
G1 F2700 E3265.11694
G0 F9000 X53.593 Y106.81
G0 X54.866 Y106.71
G0 X54.296 Y105.905
G0 X54.866 Y105.042
G1 F2700 E3270.11694
G0 F9000 X54.891 Y105.055
G1 F1800 X55.484 Y104.463 E3270.13785
G0 F9000 X55.119 Y104.403
G1 F1800 X55.484 Y104.038 E3270.15072
G0 F9000 X55.167 Y103.931
G1 F1800 X55.484 Y103.614 E3270.16191
G0 F9000 X55.136 Y103.538
G1 F1800 X55.484 Y103.19 E3270.17418
G0 F9000 X55.484 Y102.765
G1 F1800 X55.056 Y103.194 E3270.1893
G0 F9000 X54.941 Y102.884
G1 F1800 X55.075 Y102.751 E3270.19401
G0 F9000 X54.885 Y102.839
G0 X53.701 Y101.656
G0 X53.771 Y101.508
G1 F1800 X53.67 Y101.609 E3270.19757
G0 F9000 X53.363 Y101.493
G1 F1800 X53.797 Y101.058 E3270.2129
G0 F9000 X53.373 Y101.058
G1 F1800 X53.022 Y101.409 E3270.22528
G0 F9000 X52.948 Y101.058
G1 F1800 X52.631 Y101.376 E3270.23648
G0 F9000 X52.524 Y101.058
G1 F1800 X52.164 Y101.418 E3270.24918
G0 F9000 X52.1 Y101.058
G1 F1800 X51.525 Y101.633 E3270.26947
G0 F9000 X51.417 Y101.317
G1 F1800 X51.676 Y101.058 E3270.2786
G1 F2700 E3265.2786
G0 F9000 X51.676 Y101.03
G0 X49.807 Y101.102
G0 X49.806 Y102.858
G0 X50.199 Y103.004
G1 F2700 E3270.2786
G0 F9000 X50.34 Y102.818
G1 F1800 X49.765 Y103.393 E3270.29889
G0 F9000 X50.123 Y103.46
G1 F1800 X49.765 Y103.818 E3270.31152
G0 F9000 X50.081 Y103.926
G1 F1800 X49.765 Y104.242 E3270.32267
G0 F9000 X50.114 Y104.317
G1 F1800 X49.765 Y104.666 E3270.33498
G0 F9000 X49.765 Y105.09
G1 F1800 X50.198 Y104.658 E3270.35024
G0 F9000 X50.315 Y104.965
G1 F1800 X50.216 Y105.064 E3270.35373
G1 F2700 E3265.35373
G0 F9000 X50.363 Y104.997
G0 X50.171 Y103.087
G0 X49.835 Y103.087
G1 F2700 E3270.35373
G0 F9000 X49.765 Y102.969
G1 F1800 X50.017 Y102.717 E3270.36262
G0 F9000 X49.735 Y102.717
G0 X49.807 Y106.738
G0 X55.443 Y106.738
G0 X55.515 Y105.129
G0 X55.242 Y105.129
G1 F1800 X55.484 Y104.887 E3270.37116
G0 F9000 X55.515 Y104.887
G0 X55.916 Y106.93
G0 X55.976 Y106.94
G1 F1800 X55.932 Y106.984 E3270.37271
G0 F9000 X55.412 Y107.31
G1 F2700 E3265.37271
G0 F9000 X55.412 Y107.22
G0 X49.671 Y107.301
G0 X48.621 Y108.246
G0 X32.89 Y111.614
G0 X31.611 Y111.614
G0 X31.325 Y113.1
;TYPE:WALL-INNER
G1 F2700 E3270.37271
G1 F1800 X24.273 Y113.1 E3270.72453
G1 X23.846 Y113.028 E3270.74614
G1 X23.521 Y112.84 E3270.76487
G1 X23.278 Y112.552 E3270.78367
G1 X23.145 Y112.189 E3270.80296
G1 X23.125 Y111.957 E3270.81457
G1 X23.125 Y109.9 E3270.9172
G1 X23.125 Y104.9 E3271.16665
G1 X23.325 Y104.9 E3271.17663
G1 X23.325 Y109.9 E3271.25992
G1 X26.225 Y109.9 E3271.4046
G1 X26.225 Y109 E3271.4495
G1 X26.225 Y107.993 E3271.49974
G1 X26.225 Y107.039 E3271.54733
G1 X26.225 Y104.9 E3271.65405
G1 X26.325 Y104.9 E3271.65904
G1 X26.325 Y107.039 E3271.67685
G1 X26.365 Y107.504 E3271.68268
G1 X26.497 Y107.993 E3271.68421
G1 X26.71 Y108.452 E3271.70945
G1 X27 Y108.865 E3271.73463
G1 X27.134 Y109 E3271.74412
G1 X26.325 Y109 E3271.78448
G1 X26.325 Y109.9 E3271.79198
G1 X26.325 Y111.9 E3271.89176
G1 X31.325 Y111.9 E3272.14121
G1 X31.325 Y113.1 E3272.20108
G0 F9000 X31.925 Y113.7
;TYPE:WALL-OUTER
G1 F1800 X24.241 Y113.7 E3272.58443
G1 X23.929 Y113.672 E3272.60006
G1 X23.645 Y113.596 E3272.61473
G1 X23.375 Y113.471 E3272.62957
G1 X23.135 Y113.302 E3272.64422
G1 X22.923 Y113.09 E3272.65918
G1 X22.754 Y112.849 E3272.67386
G1 X22.629 Y112.581 E3272.68861
G1 X22.552 Y112.294 E3272.70344
G1 X22.525 Y111.986 E3272.71886
G1 X22.525 Y104.3 E3273.10232
G1 X23.925 Y104.3 E3273.17217
G1 X23.925 Y109.3 E3273.42162
G1 X25.625 Y109.3 E3273.50643
G1 X25.625 Y104.3 E3273.75588
G1 X26.925 Y104.3 E3273.82074
G1 X26.925 Y107.013 E3273.95609
G1 X26.958 Y107.399 E3273.97542
G1 X27.063 Y107.787 E3273.99547
G1 X27.232 Y108.151 E3274.01549
G1 X27.462 Y108.478 E3274.03544
G1 X27.745 Y108.763 E3274.05548
G1 X28.075 Y108.993 E3274.07555
G1 X28.438 Y109.162 E3274.09552
G1 X28.826 Y109.266 E3274.11556
G1 X29.212 Y109.3 E3274.1349
G1 X31.925 Y109.3 E3274.27025
G1 X31.925 Y109.6 E3274.28521
G1 X26.925 Y109.6 E3274.53467
G1 X26.925 Y111.3 E3274.61948
G1 X31.925 Y111.3 E3274.86893
G1 X31.925 Y113.7 E3274.98867
G0 F9000 X31.555 Y113.33
G0 X30.981 Y112.844
G0 X31.025 Y112.799
;TYPE:SKIN
G1 F1800 X30.813 Y112.587 E3275.00571
G1 X29.629 Y112.499 E3275.07321
G1 X26.272 Y112.461 E3275.26406
G1 X26.059 Y112.249 E3275.28115
G0 F9000 X25.964 Y112.345
G0 X24.112 Y113.287
G0 X24.07 Y113.39
G1 F1800 X23.475 Y113.137 E3275.28439
G1 X22.912 Y112.427 E3275.28893
G0 F9000 X22.987 Y112.374
G0 X26.597 Y109.272
G0 X27.268 Y109.2
G0 X27.446 Y109.166
G1 F1800 X27.783 Y109.253 E3275.30784
G1 F2700 E3270.30784
G0 F9000 X27.686 Y109.209
G0 X28.364 Y108.019
G0 X52.625 Y34.385
G0 X52.625 Y32.314
G0 X53.412 Y31.884
;TYPE:WALL-INNER
G1 F2700 E3275.30784
G1 F1800 X53.777 Y31.715 E3275.32791
G1 X54.107 Y31.482 E3275.34806
G1 X54.389 Y31.199 E3275.368
G1 X54.619 Y30.873 E3275.3879
G1 X54.79 Y30.507 E3275.40805
G1 X54.894 Y30.119 E3275.4281
G1 X54.928 Y29.719 E3275.44812
G1 X54.894 Y29.32 E3275.4681
G1 X54.79 Y28.93 E3275.48824
G1 X54.619 Y28.567 E3275.50826
G1 X54.389 Y28.24 E3275.5282
G1 X54.107 Y27.957 E3275.54814
G1 X53.777 Y27.724 E3275.56829
G1 X53.413 Y27.555 E3275.58831
G1 X53.024 Y27.451 E3275.6084
G1 X52.625 Y27.417 E3275.62838
G1 X52.226 Y27.451 E3275.64836
G1 X51.837 Y27.555 E3275.66845
G1 X51.473 Y27.724 E3275.68847
G1 X51.143 Y27.957 E3275.70862
G1 X50.861 Y28.24 E3275.72855
G1 X50.631 Y28.567 E3275.7485
G1 X50.46 Y28.93 E3275.76852
G1 X50.356 Y29.32 E3275.78865
G1 X50.322 Y29.719 E3275.80863
G1 X50.356 Y30.119 E3275.82866
G1 X50.46 Y30.507 E3275.8487
G1 X50.631 Y30.873 E3275.86886
G1 X50.861 Y31.199 E3275.88876
G1 X51.143 Y31.482 E3275.90869
G1 X51.473 Y31.715 E3275.92885
G1 X51.838 Y31.884 E3275.94891
G1 X52.224 Y31.987 E3275.96885
G1 X52.625 Y32.023 E3275.98893
G1 X53.026 Y31.987 E3276.00902
G1 X53.412 Y31.884 E3276.02895
G0 F9000 X53.207 Y31.318
;TYPE:WALL-OUTER
G1 F1800 X53.476 Y31.193 E3276.04375
G1 X53.719 Y31.022 E3276.05857
G1 X53.928 Y30.812 E3276.07335
G1 X54.098 Y30.571 E3276.08807
G1 X54.224 Y30.301 E3276.10293
G1 X54.301 Y30.015 E3276.11771
G1 X54.326 Y29.719 E3276.13253
G1 X54.301 Y29.424 E3276.1473
G1 X54.224 Y29.137 E3276.16212
G1 X54.098 Y28.869 E3276.1769
G1 X53.928 Y28.627 E3276.19165
G1 X53.719 Y28.417 E3276.20644
G1 X53.476 Y28.246 E3276.22126
G1 X53.207 Y28.121 E3276.23606
G1 X52.92 Y28.044 E3276.25088
G1 X52.625 Y28.019 E3276.26565
G1 X52.33 Y28.044 E3276.28042
G1 X52.043 Y28.121 E3276.29525
G1 X51.774 Y28.246 E3276.31005
G1 X51.531 Y28.417 E3276.32487
G1 X51.322 Y28.627 E3276.33965
G1 X51.152 Y28.869 E3276.35441
G1 X51.026 Y29.137 E3276.36918
G1 X50.949 Y29.424 E3276.38401
G1 X50.924 Y29.719 E3276.39878
G1 X50.949 Y30.015 E3276.4136
G1 X51.026 Y30.301 E3276.42837
G1 X51.152 Y30.571 E3276.44324
G1 X51.322 Y30.812 E3276.45795
G1 X51.531 Y31.022 E3276.47273
G1 X51.774 Y31.193 E3276.48756
G1 X52.043 Y31.318 E3276.50236
G1 X52.329 Y31.394 E3276.51712
G1 X52.625 Y31.421 E3276.53195
G1 X52.921 Y31.394 E3276.54678
G1 X53.207 Y31.318 E3276.56154
G0 F9000 X53.431 Y31.938
G1 F2700 E3271.56154
G0 F9000 X54.445 Y31.582
G0 X54.445 Y32.51
G0 X55.668 Y32.798
;TYPE:WALL-INNER
G1 F2700 E3276.56154
G1 F1800 X55.584 Y32.82 E3276.56587
G1 X49.692 Y32.82 E3276.85983
G1 X49.547 Y32.764 E3276.86758
G1 X49.525 Y32.676 E3276.87211
G1 X49.525 Y26.786 E3277.16596
G1 X49.579 Y26.642 E3277.17363
G1 X49.67 Y26.62 E3277.1783
G1 X55.561 Y26.62 E3277.47221
G1 X55.705 Y26.679 E3277.47997
G1 X55.725 Y26.758 E3277.48404
G1 X55.725 Y32.658 E3277.77839
G1 X55.668 Y32.798 E3277.78593
G0 F9000 X55.973 Y33.326
;TYPE:WALL-OUTER
G1 F1800 X55.746 Y33.407 E3277.79796
G1 X55.609 Y33.42 E3277.80482
G1 X49.641 Y33.42 E3278.10257
G1 X49.383 Y33.375 E3278.11563
G1 X49.175 Y33.254 E3278.12764
G1 X49.02 Y33.07 E3278.13964
G1 X48.937 Y32.841 E3278.15179
G1 X48.925 Y32.706 E3278.15855
